X:141
T:Gullane Polka, The
R:polka
S:Recording of Eddie Clarke from Miltown Malbay 1984
H:Also played in D, #45
Z:id:hn-polka-141
M:2/4
L:1/8
K:G
dg ed | GB BA/G/ | FA cA | ed B/A/B/c/ |
dg e/g/e/d/ | GB BA/G/ | FA cA |1 AG G2 :|2 AG GA ||
|: BA/B/ cB/c/ | ed B/A/B/c/ | de/d/ cA | ed BG |
BA/B/ cB/c/ | ed BG | de/d/ cA |1 AG GA :|2 AG G2 || 

